svgs/sharp-regular/window-flip.svg

<svg xmlns="http://www.w3.org/2000/svg" viewBox="0 0 512 512"><!--! Font Awesome Pro 6.6.0 by @fontawesome - https://fontawesome.com License - https://fontawesome.com/license (Commercial License) Copyright 2024 Fonticons, Inc. --><path d="M512 32L0 32 0 160l0 48 0 16L0 432l0 48 48 0 416 0 48 0 0-48 0-208 0-16 0-48 0-128zM48 224l416 0 0 208L48 432l0-208zM384 96l64 0 0 64-64 0 0-64zm-32 0l0 64-64 0 0-64 64 0zM192 96l64 0 0 64-64 0 0-64z"/></svg>

<svg xmlns="http://www.w3.org/2000/svg" viewBox="0 0 512 512"><!--! Font Awesome Pro 6.4.2 by @fontawesome - https://fontawesome.com License - https://fontawesome.com/license (Commercial License) Copyright 2023 Fonticons, Inc. --><path d="M512 32H0V160v48 16V432v48H48l416 0h48V432 224 208 160 32zM48 224H464l0 208L48 432l0-208zM384 96h64v64H384V96zm-32 0v64H288V96h64zM192 96h64v64H192V96z"/></svg>
